client/src/assets/icons/message.svg

<svg width="35" height="35" viewBox="0 0 35 35" fill="none" xmlns="http://www.w3.org/2000/svg">
<path d="M11.4548 28.3177L11.1615 28.1906L10.8489 28.2571L4.49991 29.6085L4.47737 29.6119H4.43048L4.39839 29.6191H4.39484L4.36453 29.6228L4.34016 29.6206H4.32236L4.29946 29.616L4.27556 29.6125L4.25956 29.6073L4.20715 29.5902L4.20624 29.59L4.18931 29.5825L4.1833 29.5801L4.17803 29.5772L4.16991 29.5737L4.16153 29.5688L4.15142 29.5634L4.0803 29.5142L4.07028 29.5049L4.04296 29.4795L4.04227 29.4789L4.01811 29.4522L3.99627 29.4208L3.96533 29.367L3.95733 29.3453L3.9441 29.3175L3.94265 29.3139L3.93246 29.2774L3.92922 29.2657L3.92734 29.2533L3.9238 29.2347L3.92373 29.2344L3.91866 29.1561L3.91867 29.1559L3.91888 29.1504L3.91951 29.1336L3.92834 29.0784V29.0727L3.92936 29.0657L3.92945 29.0651L3.9305 29.0609L3.93177 29.0545L3.9445 29.0121L3.95379 28.9811L3.95476 28.977L5.61681 23.9908L5.7615 23.5567L5.52765 23.1635L5.49739 23.1126C5.49709 23.1121 5.49679 23.1116 5.49649 23.1111C2.54959 18.113 3.85592 11.8988 8.75168 8.20791L9.07388 7.97153C14.3914 4.20522 22.0026 4.52149 26.9047 8.70131C31.8506 12.9216 32.5024 19.7528 28.462 24.6559C24.6213 29.3158 17.6324 30.8947 11.788 28.4621L11.4548 28.3177Z" stroke="black" stroke-width="2"/>
</svg>

<svg xmlns="http://www.w3.org/2000/svg" width="35" height="35" fill="none" viewBox="0 0 35 35">
  <path stroke="#000" stroke-width="2" d="m11.455 28.318-.293-.127-.313.066-6.35 1.351-.022.004H4.43l-.032.007h-.003l-.03.004-.025-.002h-.018l-.023-.005-.023-.003-.016-.006-.053-.017-.018-.008-.006-.002-.005-.003-.008-.003-.008-.005-.01-.006-.072-.049-.01-.01-.027-.024v-.001l-.025-.027-.022-.031-.03-.054-.009-.022-.013-.027-.001-.004-.01-.037-.004-.011-.002-.013-.003-.018-.005-.079v-.022l.01-.056v-.012l.002-.005v-.006l.014-.043.009-.03v-.005l1.663-4.986.145-.434-.234-.393-.03-.051-.001-.002C2.55 18.113 3.856 11.9 8.752 8.208l.322-.236c5.317-3.767 12.929-3.45 17.83.73 4.947 4.22 5.598 11.05 1.558 15.954-3.84 4.66-10.83 6.239-16.674 3.806l-.333-.144Z"/>
</svg>
